assets/img/sort_bottom.svg

<svg width="321" height="194" viewBox="0 0 321 194" fill="none" xmlns="http://www.w3.org/2000/svg">
<path d="M9.4559 55.6746L137.456 183.675C149.956 196.175 170.256 196.175 182.756 183.675L310.756 55.6746C319.856 46.4746 322.656 32.7746 317.656 20.7746C312.656 8.7746 300.956 0.974609 288.056 0.974609H32.1559C19.1559 0.974609 7.5559 8.7746 2.5559 20.7746C-2.4441 32.7746 0.255903 46.4746 9.4559 55.6746Z" fill="black"/>
</svg>

<svg xmlns="http://www.w3.org/2000/svg" fill="none" viewBox="0 0 321 194"><path fill="#000" d="m9.456 55.675 128 128c12.5 12.5 32.8 12.5 45.3 0l128-128c9.1-9.2 11.9-22.9 6.9-34.9s-16.7-19.8-29.6-19.8h-255.9c-13 0-24.6 7.8-29.6 19.8s-2.3 25.7 6.9 34.9Z"/></svg>
